actions/22/draw-connector.svg

<?xml version="1.0" encoding="UTF-8"?>
<!-- Created with Inkscape (http://www.inkscape.org/) -->
<svg width="22" height="22" version="1.0" xmlns="http://www.w3.org/2000/svg" xmlns:cc="http://creativecommons.org/ns#" xmlns:dc="http://purl.org/dc/elements/1.1/" xmlns:rdf="http://www.w3.org/1999/02/22-rdf-syntax-ns#">
	<metadata>
		<rdf:RDF>
			<cc:Work rdf:about="">
				<dc:format>image/svg+xml</dc:format>
				<dc:type rdf:resource="http://purl.org/dc/dcmitype/StillImage"/>
				<dc:title/>
			</cc:Work>
		</rdf:RDF>
	</metadata>
	<defs>
		<radialGradient id="b" cx="-2.1682" cy="16" r="9.75" gradientTransform="matrix(1.641 0 0 1.641 14.558 -13.256)" gradientUnits="userSpaceOnUse">
			<stop stop-color="#ffffff" stop-opacity=".74858" offset="0"/>
			<stop stop-color="#ffffff" stop-opacity=".60511" offset="1"/>
		</radialGradient>
		<radialGradient id="a" cx="308.74" cy="-102.01" r="7.254" gradientTransform="matrix(2.9709 0 0 2.8752 -906.26 304.29)" gradientUnits="userSpaceOnUse">
			<stop stop-color="#213851" stop-opacity=".9059" offset="0"/>
			<stop stop-color="#27303a" stop-opacity="0" offset="1"/>
		</radialGradient>
	</defs>
	<path d="m17 5v1 1h-3.4688l-4.0938 8.75-0.15625 0.25h-0.0625-0.21875-4v-1-1h-1v3 2h1v-2h4.75 0.28125l0.15625-0.25 4.0938-8.75h2.7188v2h1v-2-3z" color="#000000" fill="url(#b)" fill-opacity=".99858" style="block-progression:tb;font-variant-east_asian:normal;paint-order:normal;text-indent:0;text-transform:none"/>
	<path d="m19 3v2h-1v3h1v2h1v-2-3-2zm-6.2812 3-0.15625 0.25-4.0938 8.75h-3.4688v1h4 0.28125l0.15625-0.25 4.0938-8.75h3.4688v-1h-4zm-10.719 6v2 3 2h1v-2h1v-3h-1v-2z" color="#000000" fill="#090d11" fill-opacity=".76621" style="paint-order:normal"/>
	<path d="m19 3v2h-1v3h1v2h1v-2-3-2zm-6.2812 3-0.15625 0.25-4.0938 8.75h-3.4688v1h4 0.28125l0.15625-0.25 4.0938-8.75h3.4688v-1h-4zm-10.719 6v2 3 2h1v-2h1v-3h-1v-2z" color="#000000" fill="url(#a)" style="font-variant-east_asian:normal;paint-order:normal"/>
</svg>

<?xml version="1.0" encoding="UTF-8" standalone="no"?>
<!-- Created with Inkscape (http://www.inkscape.org/) -->

<svg
   xmlns:dc="http://purl.org/dc/elements/1.1/"
   xmlns:cc="http://creativecommons.org/ns#"
   xmlns:rdf="http://www.w3.org/1999/02/22-rdf-syntax-ns#"
   xmlns:svg="http://www.w3.org/2000/svg"
   xmlns="http://www.w3.org/2000/svg"
   xmlns:sodipodi="http://sodipodi.sourceforge.net/DTD/sodipodi-0.dtd"
   xmlns:inkscape="http://www.inkscape.org/namespaces/inkscape"
   version="1.0"
   width="22"
   height="22"
   id="svg2"
   inkscape:version="0.48.3.1 r9886"
   sodipodi:docname="draw-connector.svg">
  <sodipodi:namedview
     pagecolor="#ffffff"
     bordercolor="#666666"
     borderopacity="1"
     objecttolerance="10"
     gridtolerance="10"
     guidetolerance="10"
     inkscape:pageopacity="0"
     inkscape:pageshadow="2"
     inkscape:window-width="1920"
     inkscape:window-height="1023"
     id="namedview32"
     showgrid="true"
     inkscape:zoom="22.627418"
     inkscape:cx="17.923167"
     inkscape:cy="12.516455"
     inkscape:window-x="-10"
     inkscape:window-y="35"
     inkscape:window-maximized="1"
     inkscape:current-layer="svg2"
     inkscape:snap-bbox="true"
     inkscape:bbox-paths="true"
     inkscape:bbox-nodes="true"
     inkscape:snap-bbox-edge-midpoints="true"
     inkscape:snap-bbox-midpoints="true"
     inkscape:object-paths="true"
     inkscape:snap-intersection-paths="true"
     inkscape:object-nodes="true"
     inkscape:snap-smooth-nodes="true"
     inkscape:snap-midpoints="true"
     inkscape:snap-object-midpoints="true"
     inkscape:snap-center="true"
     fit-margin-top="0"
     fit-margin-left="0"
     fit-margin-right="0"
     fit-margin-bottom="0"
     inkscape:snap-global="true">
    <inkscape:grid
       type="xygrid"
       id="grid3218"
       empspacing="5"
       visible="true"
       enabled="true"
       snapvisiblegridlinesonly="true"
       originx="-11px"
       originy="18px" />
  </sodipodi:namedview>
  <metadata
     id="metadata11">
    <rdf:RDF>
      <cc:Work
         rdf:about="">
        <dc:format>image/svg+xml</dc:format>
        <dc:type
           rdf:resource="http://purl.org/dc/dcmitype/StillImage" />
        <dc:title />
      </cc:Work>
    </rdf:RDF>
  </metadata>
  <defs
     id="defs4" />
  <path
     style="font-size:medium;font-style:normal;font-variant:normal;font-weight:normal;font-stretch:normal;text-indent:0;text-align:start;text-decoration:none;line-height:normal;letter-spacing:normal;word-spacing:normal;text-transform:none;direction:ltr;block-progression:tb;writing-mode:lr-tb;text-anchor:start;baseline-shift:baseline;color:#000000;fill:#f1f3f5;fill-opacity:0.90288714000000003;fill-rule:nonzero;stroke:none;stroke-width:2;marker:none;visibility:visible;display:inline;overflow:visible;enable-background:accumulate;font-family:Sans;-inkscape-font-specification:Sans"
     d="M 17,5 17,6 17,7 13.53125,7 9.4375,15.75 9.28125,16 9.21875,16 9,16 l -4,0 0,-1 0,-1 -1,0 0,3 0,2 1,0 0,-2 4.75,0 0.28125,0 L 10.1875,16.75 14.28125,8 17,8 l 0,2 1,0 0,-2 0,-3 z"
     id="path2991"
     inkscape:connector-curvature="0"
     sodipodi:nodetypes="cccccccccccccccccccccccccc" />
  <path
     inkscape:connector-curvature="0"
     style="color:#000000;fill:#27303a;fill-opacity:0.753280819999999968;fill-rule:nonzero;stroke:none;stroke-width:2;marker:none;visibility:visible;display:inline;overflow:visible;enable-background:accumulate"
     d="m 19,3 0,2 -1,0 0,3 1,0 0,2 1,0 0,-2 0,-3 0,-2 z M 12.71875,6 12.5625,6.25 8.46875,15 5,15 5,16 9,16 9.28125,16 9.4375,15.75 13.53125,7 17,7 17,6 13,6 z M 2,12 l 0,2 0,3 0,2 1,0 0,-2 1,0 0,-3 -1,0 0,-2 z"
     id="path3801-8"
     sodipodi:nodetypes="ccccccccccccccccccccccccccccccccccc" />
</svg>
